X: 202
P: Figure Dance for eight
M: 6/4
L: 1/4
K: Gdor
[|\
d2c d2e | f>gf F2B | A2B cdA | B3- B2 |]
ed2 c2B | b2a b2d | g>ag ^f2g | g3- g2 |]

